packages/ui-icons/src/Service-logos/24/Rutube.svg

<svg viewBox="0 0 32 32" fill="none" xmlns="http://www.w3.org/2000/svg">
<path d="M16 28C22.6274 28 28 22.6274 28 16C28 9.37258 22.6274 4 16 4C9.37258 4 4 9.37258 4 16C4 22.6274 9.37258 28 16 28Z" fill="white"/>
<path fill-rule="evenodd" clip-rule="evenodd" d="M16 4.54167C9.67174 4.54167 4.54167 9.67174 4.54167 16C4.54167 22.3283 9.67174 27.4583 16 27.4583C22.3283 27.4583 27.4583 22.3283 27.4583 16C27.4583 9.67174 22.3283 4.54167 16 4.54167ZM3.5 16C3.5 9.09644 9.09644 3.5 16 3.5C22.9036 3.5 28.5 9.09644 28.5 16C28.5 22.9036 22.9036 28.5 16 28.5C9.09644 28.5 3.5 22.9036 3.5 16Z" fill="#D8D8D8"/>
<path fill-rule="evenodd" clip-rule="evenodd" d="M18.0955 14.4249C18.0955 15.1334 17.4772 15.5353 16.7151 15.5353H14.3877V13.1383H16.7151C17.4772 13.1383 18.0955 13.6358 18.0955 14.3443V14.4249ZM19.4444 16.9557C20.2312 16.366 20.7361 15.559 20.7361 14.546V14.1053C20.7361 12.3268 19.1845 11.0197 17.2713 11.0197L11.8 11L11.8034 20.9811L14.3876 21V17.6123H17.044L18.7754 21H21.8L19.4444 16.9557Z" fill="#333333"/>
</svg>

<svg viewBox="0 0 32 32" xmlns="http://www.w3.org/2000/svg"><g fill="none" fill-rule="evenodd"><circle stroke="#D8D8D8" cx="16" cy="16" r="11.5"/><path d="M18.095 14.425c0 .708-.618 1.11-1.38 1.11h-2.327v-2.397h2.327c.762 0 1.38.498 1.38 1.206v.08Zm1.35 2.53c.786-.589 1.291-1.396 1.291-2.409v-.44c0-1.78-1.552-3.086-3.465-3.086L11.8 11l.003 9.981 2.585.019v-3.388h2.656L18.775 21H21.8l-2.356-4.044Z" fill="#333"/></g></svg>
